X:1
T:Iay mis mon cueur
T:Iay mis mon cueur
T:Anonymous
T:Source : Il primo libro di madrigali a 3 voci---Venetia---A.Gardano---1559. Editor : André Vierendeels (01/11/14).
T:Notes : Original clefs : C4, C4, F3 Original note values have been halved Editorial accidentals above the staff
C:Anonymous
%%score [ 1 2 3 ]
L:1/8
Q:1/4=90
M:2/2
K:F
V:1 treble-8 nm="Tenor 1" snm="T 1"
V:2 treble-8 nm="Tenor 2" snm="T 2"
V:3 treble-8 nm="Tenor 3" snm="T 3"
V:1
 d4 d2 c2 | B3 A/G/ F4 | z2 B2 A3 G | F2 E2 D2 G2- | G2 F2 B4 | A4 z2 G2 | F3 F G2 G2 | DE FG A4 | %8
w: Iay mis mon|cueur _ _ _|en u- ne|seul- le- ment si|_ tres- a-|vant qui|ne sen peult sor-|tir, _ _ _ _|
 z4 z2 c2 | B3 B c2 c2 | G4 z4 | d4 d2 d2 | c3 B/A/ G4 | z2 F2 B3 A | B2 A4 GF | ED d3 c BA | %16
w: qui|ne sen peult sor-|tir,|tant plus y|pen- * * ce|et plus _|_ ay _ _|_ _ de _ _ _|
 B4 A4 | z2 A2 c2 c2 | A2 F3 G AB | cd e3 d d2- |"^#" d2 c2 d4- | d4 z4 | c4 A4 | A2 A2 B3 A/G/ | %24
w: soul- cy,|et plus ay|de soul- * * *||* * cy,|_|las, ie|ne puis vi- * *|
 FG AB A2 G2 |"^#" G2 F2 G4 | z2 d2 d2 c2 |: B3 A/G/ F4 | z2 B2 A3 G | F2 E2 D2 G2- | %30
w: * * * * vre joy-|eu- se- ment,|las, ie ne|puis _ _ _|vi- vre _|_ ioy- eu- se-|
"^#" G2 F2 B4 |1 A2 d2 d2 c2 :|2"^#" G2 F2 G4- || G8 |] %34
w: |ment, las ie ne|(se)- * ment.|_|
V:2
 z2 G2 F4 | G4 A4 | z2 G2 c4- | c2 d2 B3 A/G/ | A2 A2 G4 | z4 d4- | d4 d4 | d4 c4- | c2 BA G4 | %9
w: Iay mis|mon cueur|en u-|* ne seul- * *|* le- ment|si|_ tres-|a- vant|_ _ _ _|
 z2 G2 c4 | d4 A4 | B4 A4 | z4 d4- | d4 d4 | d4 c4- | c2 BA G4 | z2 G2 c4- | c2 c2 A4 | A4 F3 G | %19
w: qui ne|sen peult|sor- tir,|tant|_ plus|y pen-|* * * ce|et plus|_ ay de|soul- cy, _|
 A2 G3 F ED | E4 D4 | z4 A4- | A4 c4 | c2 c2 d4- | d2 c2 B2 c2 | A2 A2 G4 | z2 G2 F4 |: G4 A4 | %28
w: _ de _ _ _|soul- *|las,|_ las,|ie ne puis|_ vi- vre ioy-|eu- se- ment,|las, ie|ne puis|
 z2 G2 c4- | c2 d2 B3 A/G/ | A2 A2 G4 |1 z2 G2 F4 :|2 A2 A2 G4- || G8 |] %34
w: vi- vre|_ ioy- eu- * *|* se- ment,|las, ie|(eu)- se- ment.|_|
V:3
 z8 | z2 d2 d2 c2 | B3 A/G/ F3 B | A2 G2 F2 E2 | D4 z2 G2- | G2 F2 B4 | A4 z2 G2 | F3 D F2 F2 | %8
w: |Iay mis mon|cueur _ _ _ en|u- ne seul- le-|ment si|_ tres- a-|vant qui|ne sen peult sor-|
 C4 CD EF | GA Bc A4 | z2 G2 F3 F | G2 G2 D3 E | F4 z2 B2 | B2 A2 G3 F/E/ | D4 z4 | z4 z2 G2 | %16
w: tir, [sor- * * *|* * * * tir,]|qui ne sen|peult sor- tir, _|_ tant|plus y pen- * *|ce,|tant|
 G2 G2 F3 E/D/ | C4 z2 C2 | F3 F D2 D2 | A,2 C2 D2 CB, | A,G, A,2 z4 | D8 | F4 F4 | F4 B,3 A, | %24
w: plus y pen- * *|ce et|plus ay de soul-|cy, _ _ _ _|_ _ _|las,|las, ie|ne puis vi-|
 B,2 F2 G2 C2 | D4 z2 G2 | F2 G2 D4 |: z2 d2 d2 c2 | B3 A/G/ F3 B | A2 G2 F2 E2 | D4 z2 G2 |1 %31
w: vre ioy- eu- se-|ment, la,|ie ne puis,|las, ie ne|puis _ _ _ vi-|vre ioy- eu- se-|ment, las,|
 F2 B2 A4 :|2 G8- || G8 |] %34
w: ie ne puis,|ment,|_|

